X:1
T: Blackeyed Biddy
C:
R:Jig
Q:180
K:A
M:6/8
L:1/16
E2|A2B2A2 A2c2e2|e2a2c2 B4A2|c2B2A2 d4B2|c2A2A2 a2e2c2|A2B2A2 A2c2e2|e2a2c2 B4A2|c2B2A2 d4B2|c2A2A2 A4E2|
A2B2A2 A2c2e2|e2a2c2 B4A2|c2B2A2 d4B2|c2A2A2 a2e2c2|A2B2A2 A2c2e2|e2a2c2 B4A2|c2B2A2 d4B2|c2A2A2 A4a2|
e4a2 f4a2|e4a2 f2e2c2|e2f2g2 a2e2c2|e2a2c2 e2c2A2|c2B2c2 d2c2d2|e2a2c2 B4A2|c2B2A2 d4B2|c2A2A2 A4a2|
e4a2 f4a2|e4a2 f2e2c2|e2f2g2 a2e2c2|e2a2c2 e2c2A2|c2B2c2 d2c2d2|e2a2c2 B4A2|c2B2A2 d4B2|c2A2A2 A4||
